X:1
T:Fair Havens
T:Fair Havens
T:Robert Edward William Cottrill, ca. 1975
T:Courtesy of the Cyber Hymnal™
C:Robert Edward William Cottrill, ca. 1975
Z:Courtesy of the Cyber Hymnal™
%%score ( 1 2 ) ( 3 4 )
L:1/8
M:4/4
K:C
V:1 treble 
V:2 treble 
V:3 bass 
V:4 bass 
V:1
|: [CG]3 [CF] [CE]2 [Ec]2 | [Fc]4 [FA]4 | [EG]3 [FA] [EG]2 [CE]2 | [CE]4 [B,D]2 [B,E]2 | %4
 C3 [CD] [CE]2 [CG]2 | [FA]2 [FA]2 [EG]2 [EA]2 | [DB]2 [DG]2 [^FA]2 [FA]2 | G8 | %8
 [EG]2 [EG]2 [EA]2 [EB]2 | [Fc]4 [FA]4 | [EG]3 [FA] [EG]2 [CE]2 | E4 [B,D]2 [B,E]2 | %12
 C2 [CE]2 [B,D]2 [B,A]2 | [EG]2 [CE]2 [CA]2 (BA) |1 [EG]2 [CE]2 [B,D]3 [B,E] | [G,C]8 :|2 %16
 [EG]2 [Gc]2 [Fc]2 [FB]2 || [Ec]8 |] %18
V:2
|: x8 | x8 | x8 | x8 | C3 x5 | x8 | x8 | (D2 E2 F4) | x8 | x8 | x8 | (C2 A,2) x4 | x8 | x6 ^D2 |1 %14
 x8 | x8 :|2 x8 || x8 |] %18
V:3
|: [C,E,]3 [C,A,] [C,G,]2 [C,_B,]2 | [F,A,]4 [F,C]4 | [C,C]3 [C,C] [C,C]2 [C,G,]2 | %3
 [D,^F,]4 [G,,=F,]2 [G,,F,]2 | [C,E,]3 [C,F,] [C,G,]2 [E,C]2 | [F,C]2 [F,C]2 [C,C]2 [C,A,]2 | %6
 [D,G,]2 [D,B,]2 [D,D]2 [D,C]2 | (B,2 C2 D4) | C2 [B,C]2 [A,C]2 [G,C]2 | [F,A,]4 [F,C]4 | %10
 [C,C]3 [C,C] [C,C]2 [C,G,]2 | (G,2 ^F,2) [G,,=F,]2 [G,,F,]2 | [C,E,]2 [C,G,]2 [G,,F,]2 [G,,F,]2 | %13
 [C,B,]2 [C,G,]2 [F,A,]2 [^F,B,]2 |1 [G,C]2 [G,,G,]2 [G,,F,]3 [G,,G,] | [E,G,]8 :|2 %16
 [C,C]2 [E,C]2 [F,A,]2 [G,B,]2 || [C,C]8 |] %18
V:4
|: x8 | x8 | x8 | x8 | x8 | x8 | x8 | G,8 | x8 | x8 | x8 | G,,4 x4 | x8 | x8 |1 x8 | x8 :|2 x8 || %17
 x8 |] %18

